icon-themes/sifr_svg/cmd/sc_changebezier.svg

<svg viewBox="0 0 16 16" xmlns="http://www.w3.org/2000/svg"><g fill="#555753"><path d="m1 1c0 3.5252908 2.6093678 7.26323 6 7.8964844v-1.8964844h1c-2.761424 0-5-3.2385763-5-6zm8 6.1035156v1.8964844h-1c2.761424 0 5 3.238576 5 6h2c0-3.525291-2.609368-7.26323-6-7.8964844z" opacity=".35"/><path d="m6 6v4h4v-4zm-6 2v2c0 2.209139 1.790861 4 4 4h.5625l-.28125.28125c-.18811.18818-.28125.45344-.28125.71875v1h1c.26529 0 .53-.1.71875-.28125l2-2 .28125-.28125v-.875l-.28125-.28125-2-2c-.18817-.18125-.45344-.28125-.71875-.28125h-1v1c0 .2653.0931.53058.28125.71875l.28125.28125h-.5625c-1.104569 0-2-.895431-2-2v-2zm7-1h2v2h-2z"/></g></svg>

<svg xmlns="http://www.w3.org/2000/svg" viewBox="0 0 16 16">
  <path
     style="opacity:0.35;fill:#555753"
     d="M 1 1 C 1 4.5252908 3.6093678 8.26323 7 8.8964844 L 7 7 L 8 7 C 5.238576 7 3 3.7614237 3 1 L 1 1 z M 9 7.1035156 L 9 9 L 8 9 C 10.761424 9 13 12.238576 13 15 L 15 15 C 15 11.474709 12.390632 7.73677 9 7.1035156 z "
     id="path2" />
  <path
     style="fill:#555753"
     d="m 6,6 v 4 h 4 V 6 Z M 0,8 v 2 c 0,2.209139 1.790861,4 4,4 H 4.5625 L 4.28125,14.28125 C 4.09314,14.46943 4,14.73469 4,15 v 1 h 1 c 0.26529,0 0.53,-0.1 0.71875,-0.28125 l 2,-2 L 8,13.4375 v -0.875 l -0.28125,-0.28125 -2,-2 C 5.53058,10.1 5.26531,10 5,10 H 4 v 1 c 0,0.2653 0.0931,0.53058 0.28125,0.71875 L 4.5625,12 H 4 C 2.895431,12 2,11.104569 2,10 V 8 Z M 7,7 H 9 V 9 H 7 Z"
     id="path4" />
</svg>
